X:1
T:Title
%%score { 1 | ( 2 3 ) }
L:1/8
Q:1/4=102
M:6/8
K:F
V:1 treble nm="Grand Piano"
V:2 bass 
V:3 bass 
V:1
 A>AA FF[EG] | A>cB .A3 | [EG]>[EG][EG] EEF | G>BA .G3 | A>AA FF[EG] | A>cc [DB]3 | A>GF E2 E/E/ | %7
w: Wm.~A.~May * * * * *|||||||
 G>FE F3 | [EG]>[EG][EG] [EB]3 | A>AA c3 | [Fd]2 [Fd]/[Fd]/ cAF | F>EF [EG]3 | A>AA c3 | %13
w: ||||||
 [DB]>[DB][DB] [Fd]3 | c2 c/c/ cAF |[M:15/16] [EG]>[EG][EG]F3/2- F3 |] %16
w: |||
V:2
 [F,C]>[F,C][F,C] [F,A,C][F,A,C][C,C] | [F,CF]>[F,DF][F,DF] .[F,CF]3 | %2
 [C,C]>[C,C][C,C] [C,B,C][C,G,C][C,A,C] | [C,B,C]>[C,G,C][C,F,C] .[C,E,C]3 | %4
 [F,C]>[F,C][F,C] [F,A,C][F,A,C][C,C] | [F,CF]>[F,A,_E][F,A,E] [B,,B,]3 | %6
 [F,CF]>[B,CE][A,C] [G,B,C]2 [G,B,C]/[G,B,C]/ | [C,B,C]>[C,A,C][C,G,C] [F,A,C]3 | %8
 [C,C]>[C,C][C,C] [C,C]3 | [F,CF]>[F,CF][F,CF] [F,A,F]3 | z3 .A,3 | [F,A,C]>[F,G,C][F,A,C] [C,C]3 | %12
 [F,C]>[F,C][F,C] [F,A,C]3 | [B,,B,]>[B,,B,][B,,B,] [B,,B,]3 | %14
 [F,A,F]2 [F,A,F]/[F,A,F]/ [F,F]-[F,CF].[F,A,] |[M:15/16] [C,C]>[C,C][C,B,][F,A,]3/2- [F,A,]3 |] %16
V:3
 x6 | x6 | x6 | x6 | x6 | x6 | x6 | x6 | x6 | x6 | [B,,B,]2 [B,,B,]/[B,,B,]/ [F,F]-[F,CF].[F,A,] | %11
 x6 | x6 | x6 | z3 .A,3 |[M:15/16] x15/2 |] %16

